X:1
T:SONATEⅠ
T:Sonata KV 448 (375a) - 1st movement
T:W.A. Mozart (1756-1791)
T:for two pianos
T:Created Vienna, November 1781
%%score { ( 1 3 ) | ( 2 4 ) } { ( 5 8 ) | ( 6 7 ) }
L:1/8
Q:1/4=132
M:4/4
K:D
V:1 treble nm="I" snm="I"
V:3 treble 
V:2 bass 
V:4 bass 
V:5 treble nm="II" snm="II"
V:8 treble 
V:6 bass 
V:7 bass 
V:1
"^Allegro con spirito"!f! [dfad']4 a4 | Tf3 e/d/ a2 z3/2 (3(A/4B/4c/4 | d2) A>d e2 A>e | %3
 f2 d>f a2 z2 | !wedge!d z (d4 f2) | (fe) d2 z4 | !wedge![df] z (([df]4 [fa]2)) | %7
 ([fa][eg]) [df]2 z4 | z/ A/B/c/ d/e/f/g/ a/b/c'/d'/ a z | z/ A/B/c/ d/e/f/^g/ a/c'/d'/e'/ a z | %10
 z/ A/B/c/ d/e/f/=g/ a/b/c'/d'/ a z | b/d'/b/d'/ e/g/e/g/ f/a/f/a/ c/e/c/e/ | d2 z2 z2 a/b/c'/d'/ | %13
 a2 z2 z2 a/c'/d'/e'/ | a2 z2 z2 a/b/c'/d'/ | b/d'/b/d'/ e/g/e/g/ f/a/f/a/ c/e/c/e/ | %16
 d2 d'/a/f/d/ a/f/d/A/ f/d/A/F/ | d/A/F/D/ C/D/C/D/ C/D/C/D/ C/D/C/D/ | %18
 B, z b/f/d/B/ f/d/B/F/ d/B/F/D/ | B/F/D/B,/ ^A,/B,/A,/B,/ A,/B,/A,/B,/ A,/B,/A,/B,/ | %20
 G, z g/d/B/G/ d/B/G/D/ B/G/D/B,/ | G/D/B,/G,/ F,/G,/F,/G,/ F,/G,/F,/G,/ F,/G,/F,/G,/ | %22
 ^G,A,/B,/ C/D/E/F/ ^G/A/B/c/ d/e/f/^g/ | a2 z2 [FA^d]2 z2 | [^GBe]2 z2{/^D} E4 |{/^D} E4{/D} E4 | %26
{/^D} E4{/D} E4 |{/^D} E4{/D} E4 |{/^D} E4{/D} E4 | ^G/B/e/^g/ F/B/=d/f/ E/A/c/e/ D/^G/B/d/ | %30
 c z (b/a/^g/a/ g/f/^e/f/ =e/d/c/d/) | ce/c/ aa Bd/B/ ^gg | a/e/c/e/ ac' [cea]2 z2 | z8"_dolce" | %34
 z4 z2!p!{/^d} e2 | z8 | z4 z2!p!{/^d} e2 | z8 | z4 z2!p!{/^d} e2 | z8 | %40
 z A/c/ B/d/c/e/ d/f/e/^g/ f/a/g/b/ |!mf! (a^gfe) !wedge!a2 !wedge!b2 | (c'4- c'e'd'b) | %43
 (a^gfe) !wedge!a2 !wedge!b2 | (d'4 (c'>d')) (b>c') | (a^g)(Tfe) !wedge!a2 !wedge!b2 | %46
 (c'4- c'e')(d'b) | (ba)!p! a2 (a2{/c'} b2) | a2 z2 z4 | %49
!p! B,/^A,/B,/A,/ B,/A,/B,/A,/ B,/C/D/E/ F/G/=A/B/ | (B4 A>)!wedge!G!wedge!F>!wedge!E | %51
 D/C/D/C/ D/C/D/C/ D/E/F/G/ A/B/c/d/ |!<(! (d4 c>)!wedge!B!wedge!A>!wedge!G | %53
 F/^E/F/E/ F/E/F/E/ F/G/A/B/ c/d/=e/f/!<)! |!f! D/C/D/C/ D/C/D/C/ D/E/F/^G/ A/B/c/d/ | %55
 [cea] z [cea] z [cea] z [cea] z | [fac'] z [fac'] z [fac'] z [fac'] z | %57
 [fad'] z [fad'] z [fad'] z [fad'] z | [fbd'] z [fbd'] z [fbd'] z [fbd'] z | %59
 ^G/A/B/A/ G/E/F/G/ A/B/c/B/ c/B/A/G/ | F/^G/A/G/ F/D/E/F/ G/A/B/A/ G/F/E/D/ | %61
 C/E/D/C/ D/E/F/^G/ A/B/c/d/ e/f/^g/a/ | f/^g/f/e/ d/c/B/A/ ^G/A/G/F/ E/D/C/B,/ | %63
 A,/C/E/A/ c/A/e/c/ a/e/c'/a/ !wedge!e'!wedge!e' | (e'f) f3 (^a/b/ d')!wedge!d' | %65
 (d'e) e3 (^g/a/ c')!wedge!c' | (c'd) d3 (^^f/^g/ b)!wedge!b | (bc) c3 (^e/f/ a)!wedge!a | %68
 (aB) z .B z .B z TB | (a=c) z .c z .c z Tc | ^c/A/e/c/ a/e/c'/a/ e'/c'/a/e/ a/e/c/A/ | %71
 c4 TB3 A/B/ | A2 z/ A/B/c/ d/e/f/^g/ a/b/c'/a/ | !wedge!d'!wedge!b f2- f/^g/a/f/ g/a/b/g/ | %74
 a2 z/ A/B/c/ d/e/f/^g/ a/b/c'/a/ | !wedge!d'!wedge!b f2- f/^g/a/f/ g/a/b/g/ | %76
 a/c/e/a/ c'/e/a/c'/ !wedge!e'!wedge!e' z [Bde^g] | [cea]2 z2 z2 [Bde^g]2 | %78
 !arpeggio![Acea]2 !arpeggio![ceac']2 !arpeggio![eac'e']2 !arpeggio![ceac']2 | %79
 !arpeggio![Acea]2 A,>A, A,2 z2 :: z8 | z8 | z8 | z8 |!f! a4 ^g2 f2 | ^d2 e3 A=dc | ^B2 c3 F=BA | %87
 ^G2 A2 Td3 c/d/ | c/A/d/B/ e/c/f/d/ =g/e/a/f/ b/g/c'/a/ | %89
!ff! [d=f]/d'/[df]/d'/ [df]/d'/[df]/d'/ [df]/d'/[df]/d'/ [df]/d'/[df]/d'/ | %90
 e/d'/e/d'/ e/^c'/e/c'/ ^f/=c'/f/c'/ g/b/g/b/ | =c/_b/c/b/ c/a/c/a/ _B/a/B/a/ B/g/B/g/ | %92
 A/g/A/g/ A/=f/A/f/ e/a/e/a/ ^g/d'/g/d'/ |"_dolce" [ea^c']2 z2 z4 | z8 |"_dolce" d'4 c'2 =b2 | %96
 ^a2 b3 d' ^gb | a2 z2 z4 | z8 |{/d} d'2- d'3/2(e'/4d'/4 c'3/2)(d'/4c'/4 b3/2)(c'/4b/4 | %100
 ^a)!wedge!c' (b2- b/c'/d'/b/) (^g/=a/b/g/) | a z (f/a/^g/b/ a) z z2 | %102
 z2 (f/a/^g/b/ a)!wedge!a z2 | z2 (a^ab^d) z2 | z2 (efg^A) z2 | %105
 G,/C/E/C/ E/C/E/C/ G,/C/E/C/ E/C/E/C/ | G,/C/E/C/ E/C/E/C/ G,/C/E/C/ E/C/E/C/ | %107
 G,2 z2 z2 z!f! .[bd'] | .[ac'].[gb].[fa].[gb] .[fa].[eg].[df].[ce] | [dfad']4 a4 | %110
 Tf3 e/d/ a2 z3/2 (3(A/4B/4c/4 | d2) A>d e2 A>e | f2 d>f a2 z2 | !wedge!d z (d4 f2) | (fe) d2 z4 | %115
 !wedge!f z (f4 a2) | ([fa][eg]) [df]2 z4 | z/ A/B/c/ d/e/f/g/ a/b/c'/d'/ a z | %118
 z/ A/B/c/ d/e/f/^g/ a/c'/d'/e'/ a z | z/ A/B/c/ d/e/f/=g/ a/b/c'/d'/ a z | %120
 b/d'/b/d'/ e/g/e/g/ f/a/f/a/ c/e/c/e/ | d2 z2 z2 a/b/c'/d'/ | a2 z2 z2 a/c'/d'/e'/ | %123
 a2 z2 z2 a/b/c'/d'/ | b2 z2 z2 b/=c'/^c'/d'/ | =c'2 z2 z2 c'/a/c'/a/ | %126
 b z d'/b/g/d/ b/g/d/B/ g/d/B/G/ | B/G/D/B,/ ^A,/B,/A,/B,/ A,/B,/A,/B,/ A,/B,/A,/B,/ | %128
 G, z b/g/e/B/ g/e/B/G/ e/B/G/E/ | G/E/B,/G,/[K:bass] F,/G,/F,/G,/ F,/G,/F,/G,/ F,/G,/F,/G,/ | %130
 E, z[K:treble] g/e/^c/G/ e/c/G/E/ c/G/E/C/ | %131
[K:bass] E/C/G,/E,/ ^D,/E,/D,/E,/ D,/E,/D,/E,/ D,/E,/D,/E,/ | %132
 F,G,/A,/[K:treble] B,/C/D/E/ F/G/A/B/ c/d/e/f/ | [d^g]2 z2 [Bdg]2 z2 | a/e/c/e/ ac' [cea]2 z2 | %135
!p!"_dolce" (dcBA) !wedge!d2 !wedge![Ae]2 | ([Ae]2{/g} [df]2) [ce]2 z2 | (dcBA) (d2 [ea]2) | %138
 ([eg]2 T[df]2) [ce]2 z2 | (dc)(TBA) !wedge!d2 !wedge![Ae]2 | ([Ae]2{/g} [df]2) [ce]2 z2 | %141
 (a>f) (e>g) (d2{/f} [ce]2) | d2 z2 z4 | z8 |!p! A/a/A/a/ A/a/A/a/ A/a/A/a/ A/a/A/a/ | %145
 A/a/A/a/ A/a/A/a/ A/a/A/a/ A/a/A/a/ |!<(! A/a/A/a/ A/a/A/a/ A/a/A/a/ A/a/A/a/ | %147
 A/a/A/a/ A/a/A/a/ A/a/A/a/ A/a/A/a/!<)! |!f! A/a/A/a/ A/a/A/a/ A/a/A/a/ c/c'/c/c'/ | %149
 d'2!p! [Bd]2 ([Ad]2{/f} [ce]2) | d2 z2 z4 |!p! E/^D/E/D/ E/D/E/D/ E/F/G/A/ B/=c/=d/e/ | %152
 (e4 d>)!wedge!=c!wedge!B>!wedge!A | G/F/G/F/ G/F/G/F/ G/A/B/=c/!<(! d/e/f/g/ | %154
 (g4!<)! f>)!wedge!e!wedge!d>!wedge!=c | B/^A/B/A/ B/A/B/A/ B/=c/d/e/ f/g/=a/b/ | %156
!f! G/F/G/F/ G/F/G/F/ G/A/B/^c/ d/e/f/g/ | [fad'] z [fad'] z [fad'] z [fad'] z | %158
 [fbd'] z [fbd'] z [fbd'] z [fbd'] z | [gbd'] z [dgb] z [dgb] z [dgb] z | %160
 [egb] z [Beg] z [Beg] z [Beg] z | c/d/e/d/ c/A/B/c/ d/e/f/e/ f/e/d/c/ | %162
 B/c/d/c/ B/G/A/B/ c/d/e/d/ c/B/A/G/ | F/A/G/F/ G/A/B/c/ d/e/f/g/ a/b/c'/d'/ | %164
 b/c'/b/a/ g/f/e/d/ c/d/c/B/ A/G/F/E/ | F/A,/F/A,/ F/D/A/F/ d/A/f/d/ !wedge!a!wedge!a | %166
 (aB) B3 (^d/e/ g)!wedge!g | (gA) A3 (c/=d/ f)!wedge!f | (fG) G3 (^b/c'/ e')!wedge!e' | %169
 (e'f) f3 (^a/=b/ d')!wedge!d' | (d'e) z .e z .e z Te | (d'=f) z .f z .f z Tf | %172
 ^f/d/A/d/ f/d/a/f/ d'/a/f/d/ a/f/d/A/ | f4 Te3 d/e/ |!p!{/d} d'4 c'2 b2 | ^g2 a3 d=gf | %176
 ^e2 f3 B=ed | c2 d2 (fe)!wedge!c!wedge!A | %178
!f! [df]/d'/[df]/d'/ [df]/d'/[df]/d'/ [df]/d'/[df]/d'/ [df]/d'/[df]/d'/ | %179
 e/d'/e/d'/ e/c'/e/c'/ f/=c'/f/c'/ g/b/g/b/ | ^c/b/c/b/ c/^a/c/a/ ^d/=a/d/a/ e/^g/e/g/ | %181
 =g2 f3 Bed | [E_Bc]2 [FAd]2 z4 | z2 f3 _Bed | c2 z2 z4 | [df][df][fa][fa] [eg][eg][ce][ce] | %186
 d2 z/ c'/d'/c'/ d'/e'/=c'/d'/ b/c'/a/b/ | g2 z/ g/a/b/ a/b/g/a/ f/g/e/f/ | %188
 d2 z/ c'/d'/c'/ d'/e'/=c'/d'/ b/c'/a/b/ | g2 z/ g/a/b/ a/b/g/a/ f/g/e/f/ | %190
 d/F/A/d/ f/A/d/f/ !wedge!a!wedge!a z [EGAc] | [FAd]2 z2 z2 [EGAc]2 | %192
 d/D/F/A/ d/F/A/d/ f/A/d/f/ a/f/a/f/ | d2 [dfa]2 D2 z2 :| %194
V:2
 [D,D]4 A,4 | TF,3 E,/D,/ A,2 z3/2 (3(A,,/4B,,/4C,/4 | D,2) A,,>D, E,2 A,,>E, | F,2 D,>F, A,2 z2 | %4
 D,,D,D,D, D,D,D,D, | D,D,D,D, D,D,D,D, | D,,D,D,D, D,D,D,D, | D,D,D,D, D,D,D,D, | %8
 D,[DF][DF][DF] A,[DF][DF][DF] | A,[EG][EG][EG] A,[EG][EG][EG] | A,[DF][DF][DF] A,[DF][DF][DF] | %11
 z2 [G,,G,]2 [A,,A,]2 [A,,,A,,]2 | [D,,D,]2 z2 [D,,D,]2 z2 | [C,,C,]2 z2 [C,,C,]2 z2 | %14
 [D,,D,]2 z2 [D,,D,]2 z2 | z2 G2 A2 A,2 | D,/D/F,/D/ A,/D/F,/D/ D,/D/F,/D/ A,/D/F,/D/ | %17
 D,D,A,,F,, D,,F,,A,,D, | B,,/B,/D,/B,/ F,/B,/D,/B,/ B,,/B,/D,/B,/ F,/B,/D,/B,/ | %19
 B,,B,,F,,D,, B,,,D,,F,,B,, | G,,/G,/B,,/G,/ D,/G,/B,,/G,/ G,,/G,/B,,/G,/ D,/G,/B,,/G,/ | %21
 G,,G,,D,,B,,, G,,,B,,,D,,G,, | [^G,,,^G,,]4 [E,,E,]4 | [A,,A,]2 z2 [F,A,^D]2 z2 | %24
 [E,^G,B,E]2 z2 [E,,E,]4 | [E,,E,]4 [E,,E,]4 | [E,,E,]4 [E,,E,]4 | [E,,E,]4 [E,,E,]4 | %28
 [E,,E,]4 [E,,E,]4 | [E,,E,]2 [=D,,=D,]2 [C,,C,]2 [B,,,B,,]2 | x2 A,4 A,2 | A,A,CC DDB,B, | %32
 A,E,C,E, A,,2 z2 | z8 | z8 | z8 | z8 | z8 | z8 | z8 | z8 | z8 | %42
 (A,^G,F,E,) !wedge!A,2 !wedge!B,2 | (C4- CEDB,) | (A,^G,F,E,) !wedge!A,2 !wedge!B,2 | %45
 (D4 C>D) (B,>C) | (A,^G,)(TF,E,) !wedge!A,2 [^E,G,]2 | A,2[K:treble] =c2 (^c2 =d2) | c2 z2 z4 | %49
[K:bass] A,,,A,,A,,A,, A,,A,,A,,A,, | A,,2 z2 z4 | A,,,A,,A,,A,, A,,A,,A,,A,, | A,,2 z2 z4 | %53
[K:treble] D/C/D/C/ D/C/D/C/ D/=E/F/G/ A/B/c/d/ | B,/^A,/B,/A,/ B,/A,/B,/A,/ B,/C/D/E/ F/^G/=A/B/ | %55
 C/^B,/C/B,/ C/B,/C/B,/ C/D/E/F/ ^G/A/=B/c/ | A,/^G,/A,/G,/ A,/G,/A,/G,/ A,/B,/C/D/ E/F/^G/A/ | %57
[K:bass] F,/^E,/F,/E,/ F,/E,/F,/E,/ F,/^G,/A,/B,/ C/D/=E/F/ | %58
 D,/C,/D,/C,/ D,/C,/D,/C,/ D,/E,/F,/^G,/ A,/B,/C/D/ | %59
 ^G,/A,/B,/A,/ G,/E,/F,/G,/ A,/B,/C/B,/ C/B,/A,/G,/ | %60
 F,/^G,/A,/G,/ F,/D,/E,/F,/ G,/A,/B,/A,/ G,/F,/E,/D,/ | %61
 C,/E,/D,/C,/ D,/E,/F,/^G,/ A,/B,/C/D/ E/F/^G/A/ | %62
 F/^G/F/E/ D/C/B,/A,/ ^G,/A,/G,/F,/ E,/D,/C,/B,,/ | A,,2 z2 z2 !wedge![C,C]!wedge![B,,B,] | %64
 [^A,,^A,]4 [B,,B,]4 | [^G,,^G,]4 [=A,,=A,]4 | [F,,F,]4 [^G,,^G,]4 | %67
 [=F,,=F,]4 [^F,,^F,]3 [E,,E,] | [D,,D,] z [D,,D,] z [D,,D,] z [D,,D,] z | %69
 [^D,,^D,] z [D,,D,] z [D,,D,] z [D,,D,] z | [E,,E,]2 z2 z4 | %71
 E,/E/^D/E/ F/E/D/E/ E,/=D/C/D/ E/D/C/D/ |[K:treble] [A,C][A,C][A,A][A,A] [B,^G][B,G][C=G][EG] | %73
 [DF][DF][DF][DF] [B,D][B,D][B,D][B,D] | [A,C][A,C][A,A][A,A] [B,^G][B,G][C=G][EG] | %75
 [DF][DF][DF][DF] [B,D][B,D][B,D][B,D] | [A,C]E/A/ c/E/A/c/ !wedge!e!wedge!e z[K:bass] [E,E] | %77
 [A,,A,]2 z2 z2 [E,,E,]2 | A,,/A,,,/C,,/E,,/ A,,/C,,/E,,/A,,/ C,/E,,/A,,/C,/ E,/C,/E,/C,/ | %79
 A,,2 A,,,2 A,,,2 z2 :: z8 | z8 | z8 | z8 |[K:treble] A4 ^G2 F2 | ^D2 E3 A,=DC | %86
[K:bass] ^B,2 C3 F,=B,A, | ^G,2 A,2 TD3 C/D/ | [A,C][B,D][CE][DF][K:treble] [E=G][FA][GB][Ac] | %89
[K:bass] [D,D]4 [=C,=C]2 [_B,,_B,]2 | [^G,,^G,]2 [A,,A,]3 [D,,D,] [=G,,=G,][=F,,=F,] | %91
[K:bass] [E,,E,]2 [=F,,=F,]3 [_B,,,_B,,] [E,,E,][D,,D,] | %92
 [^C,,^C,]2 [D,,D,]2 [=C,,=C,]2 [_B,,,_B,,]2 | [A,,,A,,]2 z2 z4 | z8 | %95
 [A,^F][A,F][A,F][A,F] [A,E][A,E][A,D][A,D] | [A,C][A,C][A,D][A,D] [A,D][A,D][A,B,][A,B,] | %97
 [A,C]2 z2 z4 | z8 | [A,F][A,F][A,F][A,F] [A,E][A,E][A,D][A,D] | %100
 [A,C][A,C][A,D][A,D] [A,D][A,D][A,B,][A,B,] | C z (D2 C) z z2 | z2 (D2 C) z z2 | z8 | z8 | %105
!pp! [A,,,A,,]8 | A,,,8 | A,,,2 z2 z4 | %108
 A,,/A,/A,,/A,/ A,,/A,/A,,/A,/ A,,/A,/A,,/A,/ A,,/A,/A,,/A,/ | D4 A,4 | %110
 TF,3 E,/D,/ A,2 z3/2 (3(A,,/4B,,/4C,/4 | D,2) A,,>D, E,2 A,,>E, | F,2 D,>F, A,2 z2 | %113
 D,,D,D,D, D,D,D,D, | D,D,D,D, D,D,D,D, | D,,D,D,D, D,D,D,D, | D,D,D,D, D,D,D,D, | %117
 D,[DF][DF][DF] A,[DF][DF][DF] | A,[EG][EG][EG] A,[EG][EG][EG] | A,[DF][DF][DF] A,[DF][DF][DF] | %120
 z2 [G,,G,]2 [A,,A,]2 [A,,,A,,]2 | [D,,D,]2 z2 [D,,D,]2 z2 | [C,,C,]2 z2 [C,,C,]2 z2 | %123
 [=C,,=C,]2 z2 [C,,C,]2 z2 | [B,,,B,,]2 z2 [B,,,B,,]2 z2 | [F,,F,]2 z2 [F,,F,]2 z2 | %126
 G,,/G,/B,,/G,/ D,/G,/B,,/G,/ G,,/G,/B,,/G,/ D,/G,/B,,/G,/ | G,,G,D,B,, G,,B,,D,G, | %128
 E,,/E,/G,,/E,/ B,,/E,/G,,/E,/ E,,/E,/G,,/E,/ B,,/E,/G,,/E,/ | E,,E,B,,G,, E,,G,,B,,E, | %130
 ^C,,/^C,/E,,/C,/ A,,/C,/E,,/C,/ C,,/C,/E,,/C,/ A,,/C,/E,,/C,/ | A,,,A,,E,,C,, A,,,C,,E,,A,, | %132
 D,,/D,/E,/F,/ G,/A,/B,/C/[K:treble] D/E/F/G/ A/B/c/d/ | B2 z2[K:bass] [B,,B,]2 z2 | %134
 A,E,C,E, A,,2 z2 | z4 z2[K:treble] G2 | (G2 F2) E2 z2 | z4 z2 [CA]2 | [DA]4 [A,A]2 z2 | z4 z2 G2 | %140
 (G2 F2) E2 z2 |[K:bass] ([F,D]2 [G,E]2) ([A,F]2 [A,G]2) | [DF]2 z2 z4 | z8 | z8 | z8 | z8 | z8 | %148
 z8 | z2 =F2 (^F2 =G2) | [DF]2 z2 z4 | D,,D,D,D, D,D,D,D, | D,2 z2 z4 | D,,D,D,D, D,D,D,D, | %154
 D,2 z2 z4 |[K:treble] G/F/G/F/ G/F/G/F/ G/=A/B/=c/ d/e/f/g/ | %156
 E/^D/E/D/ E/D/E/D/ E/F/G/A/ B/^c/d/e/ | F/^E/F/E/ F/E/F/E/ F/G/A/B/ c/d/=e/f/ | %158
 D/C/D/C/ D/C/D/C/ D/E/F/G/ A/B/c/d/ | B,/^A,/B,/A,/ B,/A,/B,/A,/ B,/C/D/E/ F/G/=A/B/ | %160
[K:bass] G,/F,/G,/F,/ G,/F,/G,/F,/ G,/A,/B,/C/ D/E/F/G/ | C/D/E/D/ C/A,/B,/C/ D/E/F/E/ F/E/D/C/ | %162
 B,/C/D/C/ B,/G,/A,/B,/ C/D/E/D/ C/B,/A,/G,/ | %163
 F,/A,/G,/F,/ G,/A,/B,/C/[K:treble] D/E/F/G/ A/B/c/d/ | %164
 B/c/B/A/ G/F/E/D/[K:bass] C/D/C/B,/ A,/G,/F,/E,/ | D,2 z2 z2 !wedge![F,,F,]!wedge![E,,E,] | %166
 [^D,,^D,]4 [E,,E,]4 | [C,,C,]4 [=D,,=D,]4 | [B,,,B,,]4 [C,,C,]4 | [^A,,^A,]4 [B,,B,]3 [=A,,=A,] | %170
 [G,,G,] z [G,,G,] z [G,,G,] z [G,,G,] z | [^G,,^G,] z [G,,G,] z [G,,G,] z [G,,G,] z | %172
 [A,,A,]2 z2 z4 |[K:treble] A,/A/^G/A/ B/A/G/A/ A,/=G/F/G/ A/G/F/G/ |{/F} d4 c2 B2 | ^G2 A3 D=GF | %176
 ^E2 F3 B,=ED | C2 D2 (FE)!wedge!C!wedge!A, |[K:bass] [D,D]4 [C,C]2 [B,,B,]2 | %179
 [^G,,^G,]2 [A,,A,]3 [D,,D,][=G,,=G,][F,,F,] | [^E,,^E,]2 [F,,F,]3 [B,,,B,,][=E,,=E,][D,,D,] | %181
 C,,/C,/C,,/C,/ D,,/D,/D,,/D,/ G,,/G,/G,,/G,/ G,,/G,/G,,/G,/ | G,,/G,/G,,/G,/ [F,,F,]2 z4 | %183
 z2 F,,/F,/F,,/F,/ G,,/G,/G,,/G,/ G,,/G,/G,,/G,/ | G,,2 z2 z4 | %185
[K:treble] [DF][DF][FA][FA] [EG][EG][CE][CE] | [DF][DF][DF][DF] [EG][FA][GB][A=c] | %187
 [Bd][GB][EG][DF] [^CE][A,C][B,D][CE] | [DF][DF][DF][DF] [EG][FA][GB][A=c] | %189
 [Bd][GB][EG][DF] [^CE][A,C][B,D][CE] |[K:bass] D/F,/A,/D/ F/A,/D/F/ !wedge!A!wedge!A z [A,,A,] | %191
 [D,,D,]2 z2 z2 [A,,,A,,]2 | D,,F,,/A,,/ D,/F,,/A,,/D,/ F,/A,,/D,/F,/ A,/F,/A,/F,/ | %193
 D,2 D2 [D,,D,]2 z2 :| %194
V:3
 x8 | x8 | x8 | x8 | !wedge!F x (F4 A2) | G2 F2 x4 | x8 | x8 | x8 | x8 | x8 | x8 | x8 | x8 | x8 | %15
 x8 | x8 | x8 | x8 | x8 | x8 | x8 | x8 | x8 | x8 | x8 | x8 | x8 | x8 | x8 | x8 | x8 | x8 | x8 | %34
 x8 | x8 | x8 | x8 | x8 | x8 | x8 | x8 | e8 | x8 | e8 | x8 | e4- e2 d2 | c2 f2 (e2 ^g2) | x8 | x8 | %50
 x8 | x8 | x8 | x8 | x8 | x8 | x8 | x8 | x8 | x8 | x8 | x8 | x8 | x8 | x8 | x8 | x8 | x8 | x8 | %69
 x8 | x8 | x8 | x8 | x8 | x8 | x8 | x8 | x8 | x8 | x8 :: x8 | x8 | x8 | x8 | x8 | x8 | x8 | x8 | %88
 x8 | x8 | x8 | x8 | x8 | x8 | x8 | x8 | x8 | x8 | x8 | x8 | x8 | x8 | x8 | x8 | x8 | x8 | x8 | %107
 x8 | x8 | x8 | x8 | x8 | x8 | !wedge!F x (F4 A2) | G2 F2 x4 | !wedge!d x (d4 f2) | x8 | x8 | x8 | %119
 x8 | x8 | x8 | x8 | x8 | x8 | x8 | x8 | x8 | x8 | x2[K:bass] x6 | x2[K:treble] x6 |[K:bass] x8 | %132
 x2[K:treble] x6 | x8 | x8 | x8 | x8 | x8 | x8 | x8 | x8 | x8 | x8 | x8 | x8 | x8 | x8 | x8 | x8 | %149
 x8 | x8 | x8 | x8 | x8 | x8 | x8 | x8 | x8 | x8 | x8 | x8 | x8 | x8 | x8 | x8 | x8 | x8 | x8 | %168
 x8 | x8 | x8 | x8 | x8 | x8 | x8 | x8 | x8 | x8 | x8 | x8 | x8 | [Ae]2 [A=d]2 [GB]4 | x8 | %183
 x2 [Ad]2 [G_B]4 | [E_B]2 x2 x4 | x8 | x8 | x8 | x8 | x8 | x8 | x8 | x8 | x8 :| %194
V:4
 x8 | x8 | x8 | x8 | x8 | x8 | x8 | x8 | x8 | x8 | x8 | x8 | x8 | x8 | x8 | x8 | x8 | x8 | x8 | %19
 x8 | x8 | x8 | x8 | x8 | x8 | x8 | x8 | x8 | x8 | x8 | [A,,,A,,]A,, C,C, D,D, F,F, | %31
 E,E,E,E, E,E,E,E, | x8 | x8 | x8 | x8 | x8 | x8 | x8 | x8 | x8 | x8 | x8 | x8 | x8 | x8 | x8 | %47
 F,2[K:treble] ^D2 =E4 | A2 x2 x4 |[K:bass] x8 | x8 | x8 | x8 |[K:treble] x8 | x8 | x8 | x8 | %57
[K:bass] x8 | x8 | x8 | x8 | x8 | x8 | x8 | x8 | x8 | x8 | x8 | x8 | x8 | x8 | x8 |[K:treble] x8 | %73
 x8 | x8 | x8 | x7[K:bass] x | x8 | x8 | x8 :: x8 | x8 | x8 | x8 |[K:treble] x8 | x8 |[K:bass] x8 | %87
 x8 | x4[K:treble] x4 |[K:bass] x8 | x8 |[K:bass] x8 | x8 | x8 | x8 | x8 | x8 | x8 | x8 | x8 | x8 | %101
 A, x A,2- A, x x2 | x2 A,2- A, x x2 | x8 | x8 | x8 | x8 | x8 | x8 | x8 | x8 | x8 | x8 | x8 | x8 | %115
 x8 | x8 | x8 | x8 | x8 | x8 | x8 | x8 | x8 | x8 | x8 | x8 | x8 | x8 | x8 | x8 | x8 | %132
 x4[K:treble] x4 | x4[K:bass] x4 | x8 | x4 x2[K:treble] C2 | D4 A,2 x2 | x8 | x8 | x4 x2 C2 | %140
 D4 A,2 x2 |[K:bass] x8 | x8 | x8 | x8 | x8 | x8 | x8 | x8 | x2 ^G,2 A,4 | x8 | x8 | x8 | x8 | x8 | %155
[K:treble] x8 | x8 | x8 | x8 | x8 |[K:bass] x8 | x8 | x8 | x4[K:treble] x4 | x4[K:bass] x4 | x8 | %166
 x8 | x8 | x8 | x8 | x8 | x8 | x8 |[K:treble] x8 | x8 | x8 | x8 | x8 |[K:bass] x8 | x8 | x8 | x8 | %182
 x8 | x8 | x8 |[K:treble] x8 | x8 | x8 | x8 | x8 |[K:bass] x8 | x8 | x8 | x8 :| %194
V:5
!f! [DFAd]4 A4 | TF3 E/D/ A2 z3/2 (3(A,/4B,/4C/4 | D2) A,>D E2 A,>E | F2 D>F A2 z2 | z8 | %5
 z2 z/ A/B/c/ d/c/d/A/ e/d/e/A/ | f2 z2 z4 | z2 z/ c/d/e/ f/e/f/d/ g/f/g/e/ | a2 z2 z4 | z8 | z8 | %11
 E4 ([DF]2 [EG]2) | z/ A/B/c/ d/e/f/g/ a/b/c'/d'/ a z | z/ A/B/c/ d/e/f/^g/ a/c'/d'/e'/ a z | %14
 z/ A/B/c/ d/e/f/=g/ a/b/c'/d'/ a z | g/b/g/b/ G/B/G/B/ D/F/D/F/ E/G/E/G/ | F2 z2 z4 | %17
 z2 d'/a/f/d/ a/f/d/A/ f/d/A/F/ | d/B/F/D/ C/D/C/D/ C/D/C/D/ C/D/C/D/ | %19
 B, z b/f/d/B/ f/d/B/F/ d/B/F/D/ | B/G/D/B,/ ^A,/B,/A,/B,/ A,/B,/A,/B,/ A,/B,/A,/B,/ | %21
 G, z g/d/B/G/ d/B/G/D/ B/G/D/B,/ | [B,D]4 [^G,B,D]4 | C/D/E/F/ ^G/A/B/c/ ^d/e/f/^g/ a/b/c'/^d'/ | %24
 e'/e/e'/e/ e'/e/e'/e/ e'/e/e'/e/ e'/e/e'/e/ | e'/f/e'/f/ e'/f/e'/f/ d'/f/d'/f/ d'/f/d'/f/ | %26
 d'/e/d'/e/ d'/e/d'/e/ c'/e/c'/e/ c'/e/c'/e/ | c'/d/c'/d/ c'/d/c'/d/ b/d/b/d/ b/d/b/d/ | %28
 b/c/b/c/ b/c/b/c/ a/^d/a/d/ a/d/a/d/ | [Be^g] z Tf3/2e/4f/4 e z [E^Gd] z | %30
 [EAc] z (b/a/^g/a/ g/f/^e/f/ =e/d/c/d/) | ce/c/ aa Bd/B/ ^gg | a/e/c/e/ ac' [cea]2 z2 | %33
!p! (A^GFE) !wedge!A2 !wedge![EB]2 | ([EB]2{/d} [Ac]2) [^GB]2 z2 | (A^GFE) (A2 [Be]2) | %36
 ([Bd]2 T[Ac]2) [^GB]2 z2 | (A^GTFE) !wedge!A2 !wedge![EB]2 | ([EB]2{/d} [Ac]2) [^GB]2 z2 | %39
 (e>c) (B>d) (A2{/c} [^GB]2) | A2 z2 z4 |!mf! (A^GFE) !wedge!A2 !wedge!B2 | (c4- cedB) | %43
 (A^GFE) !wedge!A2 !wedge!B2 | (d4 (c>d)) (B>c) | (A^G)(TFE) !wedge!A2 !wedge!B2 | (c4- ce)(dB) | %47
 A2 z2 z4 |!p! A,/^G,/A,/G,/ A,/G,/A,/G,/ A,/B,/C/D/ E/F/^G/A/ | %49
 (A4 =G>)!wedge!F!wedge!E>!wedge!D | C/^B,/C/B,/ C/B,/C/B,/ C/D/E/F/ G/A/=B/c/ | %51
 (c4 B>)!wedge!A!wedge!G>!wedge!F |!<(! E/^D/E/D/ E/D/E/D/ E/F/G/A/ B/c/=d/e/ | %53
 (e4 d>)!wedge!c!wedge!B>!wedge!A!<)! |!f! ^G/^^F/G/^^F/ G/^^F/G/^^F/ G/A/B/c/ d/e/^f/^g/ | %55
 a [Acea]2 [Acea]2 [Acea]2 [A-cea-] | [Acfa] [cfac']2 [cfac']2 [cfac']2 ([cfac'] | %57
 [dfad']) [dfad']2 [dfad']2 [dfad']2 [d-fad'-] | [dfbd'] [dfbd']2 [dfbd']2 [dfbd']2 [dfbd'] | %59
 [ebd']2 z2 [eac']2 z2 | [dac']2 z2 [deb]2 z2 | [ceb]2 z2 [cfa]2 z2 | [Bfa]2 z2 [Be^g]2 z2 | %63
 [Acea]2 z2 z2 !wedge!a!wedge!=g | f/g/f/^e/ f/g/=e/f/ d/e/c/d/ B/c/d/^d/ | %65
 e/f/e/^d/ e/f/=d/e/ c/d/B/c/ A/B/c/A/ | d/e/d/c/ d/e/c/d/ B/c/^A/B/ ^G/=A/B/^B/ | %67
 c/d/c/^B/ c/d/=B/c/ A/B/^G/A/ F/E/D/C/ | B,/D/F/D/ A/F/D/F/ B,/D/F/D/ A/F/D/F/ | %69
 =C/^D/F/D/ A/F/D/F/ C/D/F/D/ A/F/D/F/ | [^CEA]2 z2 z4 | A4 T^G3 F/G/ | %72
 A2 z/ A,/B,/C/ D/E/F/^G/ A/B/c/A/ | !wedge!d!wedge!B F2- F/^G/A/F/ G/A/B/G/ | %74
 A2 z/ A,/B,/C/ D/E/F/^G/ A/B/c/A/ | !wedge!d!wedge!B F2- F/^G/A/F/ G/A/B/G/ | A2 z2 z2 [Bde^g]2 | %77
 a/c/e/a/ c'/e/a/c'/ !wedge!e'!wedge!e' z [Bde^g] | %78
 !arpeggio![Acea]2 !arpeggio![ceac']2 !arpeggio![eac'e']2 !arpeggio![ceac']2 | %79
 !arpeggio![Acea]2 A>A A2 z2 ::!p! a4 ^g2 f2 | ^d2 e3 A=dc | ^B2 c3 F=BA |!<(! ^GEAF DB,ED!<)! | %84
!f! C2 [Ee]2 [^D^d]2 [Cc]2 | [=C=c]2 [B,B][_B,_B] [A,A]2 [Aa]2- | %86
 [Aa][Aa][^G^g][=G=g] [Ff]2 [=F=f]2 | e2 A4 [^GB]2 | [Ac]2 z2 z4 | %89
!ff! [d=f]/d'/[df]/d'/ [df]/d'/[df]/d'/ [df]/d'/[df]/d'/ [df]/d'/[df]/d'/ | %90
 d/=b/d/b/ ^c/a/c/a/ =c/a/c/a/ B/g/B/g/ | _B/g/B/g/ A/=f/A/f/ A/f/A/f/ G/e/G/e/ | %92
 G/e/G/e/ =F/d/F/d/ A/e/A/e/ d/^g/d/g/ | a4 =g2 ^f2 | ^d2 e3 g ce | d2 z2 z4 | z8 | %97
{/A} a2- a3/2(b/4a/4 g3/2)(a/4g/4 f3/2)(g/4f/4 | ^d)!wedge!f (e2- e/f/g/e/) (c/=d/e/c/) | %99
 d2 z2 z4 | z8 | z4 z2 (f/a/^g/b/ | a) z z2 z2 (f/a/^g/b/ | a)!wedge!a z2 z2 (ef | a=g) z2 z2 (Be | %105
 dc) (GF!<(! EGBA | GB)([Ge][Fd] [Ec][Ge][eg][df])!<)! | %107
 ([ce][eg])!f! .[gb].[fa] .[eg].[df].[ce].[Bd] | .[Ac].[GB].[FA].[GB] .[FA].[EG].[DF].[CE] | %109
 [DFAd]4 A4 | TF3 E/D/ A2 z3/2 (3(A,/4B,/4C/4 | D2) A,>D E2 A,>E | F2 D>F A2 z2 | z8 | %114
 z2 z/ A/B/c/ d/c/d/A/ e/d/e/A/ | f2 z2 z4 | z2 z/ c/d/e/ f/e/f/d/ g/f/g/e/ | a2 z2 z4 | z8 | z8 | %120
 E4 ([DF]2 [EG]2) | z/ A/B/c/ d/e/f/g/ a/b/c'/d'/ a z | z/ A/B/c/ d/e/f/^g/ a/c'/d'/e'/ a z | %123
 z/ A/B/c/ d/e/f/=g/ a/b/c'/d'/ a z | z/ B/=c/d/ e/f/g/a/ b/=c'/^c'/d'/ b z | %125
 z/ =c/d/e/ f/g/a/b/ =c'/a/c'/a/ c' z | b2 z2 z4 | z2 d'/b/g/d/ b/g/d/B/ g/d/B/G/ | %128
 B/G/E/B,/ ^A,/B,/A,/B,/ A,/B,/A,/B,/ A,/B,/A,/B,/ | G, z b/g/e/B/ g/e/B/G/ e/B/G/E/ | %130
 G/E/^C/G,/[K:bass] F,/G,/F,/G,/ F,/G,/F,/G,/ F,/G,/F,/G,/ | %131
 E, z[K:treble] g/e/c/G/ e/c/G/E/ c/G/E/C/ | D2 z2 z4 | ^G,A,/B,/ C/D/E/F/ ^G/A/B/c/ d/e/f/^g/ | %134
 a2 [CEA]2 A,2 z2 | z8 | z4 z2!p!{/^g} a2 | z8 | z4 z2{/^g} a2 | z8 | z4 z2{/^g} a2 | z8 | %142
 z D/F/ E/G/F/A/ G/B/A/c/ B/d/c/e/ | (dcBA) !wedge!d2 !wedge!e2 | (f4- fage) | %145
!<(! (dcBA) !wedge!d2 !wedge!e2!<)! | g4 (f>g) (e>f) |!f! ([Dd][Cc][B,B][A,A]) [Dd]2 [Ee]2 | %148
 [Ff]4- [Ff][Aa][Gg][Ee] | [Dd]2 z2 z4 |!p! D/C/D/C/ D/C/D/C/ D/E/F/G/ A/B/c/d/ | %151
 (d4 =c>)!wedge!B!wedge!A>!wedge!G | F/^E/F/E/ F/E/F/E/ F/G/A/B/ =c/d/=e/f/ | %153
 (f4 e>)!wedge!d!wedge!=c>!wedge!B |!<(! A/^G/A/G/ A/G/A/G/ A/B/=c/d/ e/f/=g/a/ | %155
 (a4!<)! g>)!wedge!f!wedge!e>!wedge!d |!f! ^c/^B/c/B/ c/B/c/B/ c/d/e/f/ g/a/=b/c'/ | %157
 d' [dfad']2 [dfad']2 [dfad']2 [d-f-ad'-] | [dfbd'] [dfbd']2 [dfbd']2 [dfbd']2 [d-fbd'-] | %159
 [dgbd'] [Bdgb]2 [Bdgb]2 [Bdgb]2 [B-dgb-] | [Begb] [GBeg]2 [GBeg]2 [GBeg]2 [GBeg] | %161
 [Aeg]2 z2 [Adf]2 z2 | [Gdf]2 z2 [GAe]2 z2 | [FAe]2 z2 [FBd]2 z2 | [EBd]2 z2 [EAc]2 z2 | %165
 [FAd]2 z2 z2 !wedge!d!wedge!=c | B/=c/B/^A/ B/c/=A/B/ G/A/F/G/ E/F/G/^G/ | %167
 A/B/A/^G/ A/B/=G/A/ F/G/E/F/ D/E/F/D/ | G/A/G/F/ G/g/f/g/ e/f/^d/e/ c/=d/e/^e/ | %169
 f/g/f/=f/ ^f/g/e/f/ d/e/c/d/ B/A/G/F/ | E/G/B/G/ d/B/G/B/ E/G/B/G/ d/B/G/B/ | %171
 =F/^G/B/G/ d/B/G/B/ F/G/B/G/ d/B/G/B/ | [^FAd]2 z2 z4 | d4 Tc3 B/c/ | d2 z2 z4 | %175
 z!p! (=FE_E D2) z2 | z (DC=C B,2 _B,2) | A,4 =B,2 [EG]2 | %178
!f! [df]/d'/[df]/d'/ [df]/d'/[df]/d'/ [df]/d'/[df]/d'/ [df]/d'/[df]/d'/ | %179
 d/b/d/b/ c/a/c/a/ =c/a/c/a/ B/g/B/g/ | B/^g/B/g/ ^A/f/A/f/ =A/f/A/f/ ^G/e/G/e/ | %181
 [=GAe]2 [FAd]2 z4 | z2 f3 _Bed | [E_Bc]2 [FAd]2 z4 | z2 [^Ad^a]3 [=Bd=b][cec'][d=fd'] | %185
 [Ad^f]2 [Afa]2 [Aeg]2 [Ace]2 | [FAd]2 z/ c/d/c/ d/e/=c/d/ B/c/A/B/ | %187
 G2 z/ G/A/B/ A/B/G/A/ F/G/E/F/ | D2 z/ c/d/c/ d/e/=c/d/ B/c/A/B/ | %189
 G2 z/ G/A/B/ A/B/G/A/ F/G/E/F/ | D2 z2 z2 [EGAc]2 | d/F/A/d/ f/A/d/f/ !wedge!a!wedge!a z [EGAc] | %192
 [DFAd]2 z/ F,/A,/D/ F/A,/D/F/ A/F/A/F/ | D2 [DFAd]2 D2 z2 :| %194
V:6
 [D,,D,]4 A,,4 | TF,,3 E,,/D,,/ A,,2 z3/2 (3(A,,,/4B,,,/4C,,/4 | D,,2) A,,,>D,, E,,2 A,,,>E,, | %3
 F,,2 D,,>F,, A,,2 z2 | z8 | z4 [F,D][F,D][A,E][A,E] | [DF]2 z2 z4 | %7
 z4[K:treble] [DF][DF][EG][EG] | [FA]2 z2[K:bass] [D,,D,]2 z2 | [C,,C,]2 z2 [C,,C,]2 z2 | %10
 [D,,D,]2 z2 [D,,D,]2 z2 | [B,D]4 A,4 | [DF][DF][DF][DF] A,[DF][DF][DF] | %13
 A,[EG][EG][EG] A,[EG][EG][EG] | A,[DF][DF][DF] A,[DF][DF][DF] | z2 [G,,G,]2 [A,,A,]2 [A,,,A,,]2 | %16
 [D,,D,]2 z2 z4 | D,/D/F,/D/ A,/D/F,/D/ D,/D/F,/D/ A,/D/F,/D/ | B,,B,,F,,D,, B,,,D,,F,,B,, | %19
 B,,/B,/D,/B,/ F,/B,/D,/B,/ B,,/B,/D,/B,/ F,/B,/D,/B,/ | G,,G,,D,,B,,, G,,,B,,,D,,G,, | %21
 G,,/G,/B,,/G,/ D,/G,/B,,/G,/ G,,/G,/B,,/G,/ D,/G,/B,,/G,/ | [^G,,E,]4 E,,4 | [A,,,A,,]4 [F,,F,]4 | %24
 [E,,E,]4 z (^G,B,G,) | z (A,C^A,) z (B,/C/ DB,) | z (^G,B,G,) z (=A,/B,/ CA,) | %27
 z (F,A,F,) z (^G,/A,/ B,G,) | z (A,/B,/ CA,) z[K:treble] (F/^G/ AF) |[K:bass] E,ED,D C,CB,,B, | %30
 A,2 A,4 A,2 | [E,A,][E,A,][E,C][E,C] [E,D][E,D][E,B,][E,B,] | A,E,C,E, A,,2 z2 | z4 z2 [^G,D]2 | %34
 (D2 C2) B,2 z2 | z4 z2 [^G,E]2 | [A,E]4 [E,E]2 z2 | z4 z2 [^G,D]2 | ((D2 C2)) B,2 z2 | %39
 ([C,A,]2 [D,B,]2) ([E,C]2 [E,D]2) | [A,C]2 z2 z4 | z8 | (A,,^G,,F,,E,,) !wedge!A,,2 !wedge!B,,2 | %43
 (C,4- C,E,D,B,,) | (A,,^G,,F,,E,,) !wedge!A,,2 !wedge!B,,2 | (D,4 C,>D,) (B,,>C,) | %46
 (A,,^G,,)(F,,E,,) !wedge!A,,2 [^E,,G,,]2 | [F,,A,,]2 z2 z4 | A,,,A,,A,,A,, A,,A,,A,,A,, | %49
 A,,2 z2 z4 | A,,,A,,A,,A,, A,,A,,A,,A,, | A,,2 z2 z4 | A,,,A,,A,,A,, A,,A,,A,,A,, | %53
 A,,,A,,A,,A,, A,,A,,A,,A,, | %54
 [A,,,A,,][A,,,A,,][A,,,A,,][A,,,A,,] [A,,,A,,][A,,,A,,][A,,,A,,][A,,,A,,] | %55
 A,,/^G,,/A,,/G,,/ A,,/G,,/A,,/G,,/ A,,/B,,/C,/D,/ E,/F,/^G,/A,/ | %56
 F,,/^E,,/F,,/E,,/ F,,/E,,/F,,/E,,/ F,,/^G,,/A,,/B,,/ C,/D,/=E,/F,/ | %57
 D,,/C,,/D,,/C,,/ D,,/C,,/D,,/C,,/ D,,/E,,/F,,/^G,,/ A,,/B,,/C,/D,/ | %58
 B,,,/^A,,,/B,,,/A,,,/ B,,,/A,,,/B,,,/A,,,/ B,,,/C,,/D,,/E,,/ F,,/^G,,/=A,,/B,,/ | %59
 [^G,,,^G,,]2 z2 [A,,,A,,]2 z2 | [F,,,F,,]2 z2 [^G,,,^G,,]2 z2 | [A,,,A,,]2 z2 [F,,F,]2 z2 | %62
 [D,,D,]2 z2 [E,,E,]2 z2 | [A,,,A,,]2 z2 z2[K:treble] !wedge!A!wedge!=G | %64
 F/G/F/^E/ F/G/=E/F/ D/E/C/D/ B,/C/D/^D/ | E/F/E/^D/ E/F/=D/E/ C/D/B,/C/ A,/B,/C/A,/ | %66
 D/E/D/C/ D/E/C/D/[K:bass] B,/C/^A,/B,/ ^G,/=A,/B,/^B,/ | %67
 C/D/C/^B,/ C/D/=B,/C/ A,/B,/^G,/A,/ !wedge!F,!wedge!E, | [D,,D,]8 | [^D,,^D,]8 | [E,,E,]2 z2 z4 | %71
 E,E,E,E, E,,E,,E,,E,, | A,,A,,,A,,A,, A,,A,,A,,A,, | A,,A,A,,A, A,,A,A,,A, | %74
 A,,A,,,A,,A,, A,,A,,A,,A,, | A,,A,A,,A, A,,A,A,,A, | A,,2 z2 z2 [E,,E,]2 | %77
 [A,,A,]/C/[K:treble]E/A/ c/E/A/c/ !wedge!e!wedge!e z[K:bass] [E,E] | %78
 A,/A,,/C,/E,/ A,/C,/E,/A,/ C/E,/A,/C/ E/C/E/C/ | A,2 A,,>A,, A,,2 z2 ::[K:treble] A4 ^G2 F2 | %81
 ^D2 E3 A,=DC | ^B,2 C3[K:bass] F,=B,A, | ^G,E,A,F, D,B,,E,D, | C,2 [C,C]2 [B,,B,]2 [A,,A,]2- | %85
 [A,,A,]2 [^G,,^G,][=G,,=G,] [F,,F,]4- | [F,,F,][F,,F,][^E,,^E,][=E,,=E,] [^D,,^D,]2 [=D,,=D,]2- | %87
 [D,,D,]2 [C,,C,]2 [B,,,B,,]2 [E,,E,]2 | [A,,,A,,]2 z2 z4 | [D,D]4 [=C,=C]2 [_B,,_B,]2 | %90
 [^G,,^G,]2 [A,,A,]3 [D,,D,] [=G,,=G,][=F,,=F,] | [E,,E,]2 [=F,,=F,]3 [_B,,,_B,,] [E,,E,][D,,D,] | %92
 [^C,,^C,]2 [D,,D,]2 [=C,,=C,]2 [_B,,,_B,,]2 | A,,A,A,A, [A,C][A,C][A,D][A,D] | %94
 [A,F][A,F][A,G][A,G] [A,G][A,G][A,E][A,E] | [A,F]2 z2 z4 | z8 | %97
 [A,C][A,C][A,C][A,C] [A,C][A,C][A,D][A,D] | [A,F][A,F][A,G][A,G] [A,G][A,G][A,E][A,E] | %99
 [A,F]2 z2 z4 | z8 | z4 z2 (D2 | C) z z2 z2 (D2 | C) z z2 z4 | z8 |!p! [A,,C,E,G,]8 | %106
 [A,,C,E,G,]8 | [A,,C,E,G,]2 z2 z4 | %108
!f! A,,,/A,,/A,,,/A,,/ A,,,/A,,/A,,,/A,,/ A,,,/A,,/A,,,/A,,/ A,,,/A,,/A,,,/A,,/ | [D,,D,]4 A,,4 | %110
 TF,,3 E,,/D,,/ A,,2 z3/2 (3(A,,,/4B,,,/4C,,/4 | D,,2) A,,,>D,, E,,2 A,,,>E,, | %112
 F,,2 D,,>F,, A,,2 z2 | z8 | z4 [F,D][F,D][A,E][A,E] | [DF]2 z2 z4 | z4 [DF][DF][EG][EG] | %117
 [FA]2 z2 [D,,D,]2 z2 | [C,,C,]2 z2 [C,,C,]2 z2 | [D,,D,]2 z2 [D,,D,]2 z2 | D4 x2 x2 | %121
[K:treble] [DF][DF][DF][DF] A,[DF][DF][DF] | A,[EG][EG][EG] A,[EG][EG][EG] | %123
 A,[DF][DF][DF] A,[DF][DF][DF] | B,[DG][DG][DG] B,[DG][DG][DG] | A,[DA][DA][DA] A,[DA][DA][DA] | %126
 [B,DG]2 z2 z4 |[K:bass] G,,/G,/B,,/G,/ D,/G,/B,,/G,/ G,,/G,/B,,/G,/ D,/G,/B,,/G,/ | %128
 E,,E,B,,G,, E,,G,,B,,E, | E,,/E,/G,,/E,/ B,,/E,/G,,/E,/ E,,/E,/G,,/E,/ B,,/E,/G,,/E,/ | %130
 ^C,,^C,A,,E,, C,,E,,A,,C, | %131
 A,,,/A,,/C,,/A,,/ E,,/A,,/C,,/A,,/ A,,,/A,,/C,,/A,,/ E,,/A,,/C,,/A,,/ | D,,2 z2 z4 | %133
 B,,C,/D,/ E,/F,/^G,/A,/ B,/C/D/E/[K:treble] F/^G/A/B/ | c2[K:bass] A,2 [A,,,A,,]2 z2 | z8 | z8 | %137
 z8 | z8 | z8 | z8 | z8 | z8 | z8 |!p! (D,C,B,,A,,) !wedge!D,2 !wedge!E,2 | (F,4-!<(! F,A,G,E,) | %146
 D,C,B,,!<)!A,, !wedge!D,2 !wedge!E,2 |!f! G,4 (F,>G,) (E,>F,) | %148
 ([D,,D,][C,,C,][B,,,B,,][A,,,A,,]) !wedge![D,,D,]2 !wedge![^A,,,^A,,]2 | [B,,,B,,]2 z2 z4 | %150
 D,,D,D,D, D,D,D,D, | D,2 z2 z4 | D,,D,D,D, D,D,D,D, | D,2 z2 z4 | D,,D,D,D, D,D,D,D, | %155
 D,,D,D,D, D,D,D,D, | [D,,D,][D,,D,][D,,D,][D,,D,] [D,,D,][D,,D,][D,,D,][D,,D,] | %157
 D,/^C,/D,/C,/ D,/C,/D,/C,/ D,/E,/F,/G,/ A,/B,/C/D/ | %158
 B,,/^A,,/B,,/A,,/ B,,/A,,/B,,/A,,/ B,,/C,/D,/E,/ F,/G,/=A,/B,/ | %159
 G,,/F,,/G,,/F,,/ G,,/F,,/G,,/F,,/ G,,/A,,/B,,/C,/ D,/E,/F,/G,/ | %160
 E,,/^D,,/E,,/D,,/ E,,/D,,/E,,/D,,/ E,,/F,,/G,,/A,,/ B,,/C,/D,/E,/ | [C,,C,]2 z2 [D,,D,]2 z2 | %162
 [B,,,B,,]2 z2 [C,,C,]2 z2 | [D,,D,]2 z2 [B,,,B,,]2 z2 | [G,,,G,,]2 z2 [A,,,A,,]2 z2 | %165
 [D,,D,]2 z2 z2 !wedge!D!wedge!=C | B,/=C/B,/^A,/ B,/C/=A,/B,/ G,/A,/F,/G,/ E,/F,/G,/^G,/ | %167
 A,/B,/A,/^G,/ A,/B,/=G,/A,/ F,/G,/E,/F,/ D,/E,/F,/D,/ | %168
 G,/A,/G,/F,/ G,/G/F/G/ E/F/^D/E/ C/=D/E/^E/ | F/G/F/=F/ ^F/G/E/F/ D/E/C/D/ !wedge!B,!wedge!A, | %170
 [G,,G,]8 | [^G,,^G,]8 | [A,,A,]2 z2 z4 | A,A,A,A, A,,A,,A,,A,, | D,2 z2 z4 | z (DC=C B,2) z2 | %176
 z (B,^A,=A, ^G,2 =G,2- | G,2) F,2 G,2 [A,,A,]2 | [D,D]4 [C,C]2 [B,,B,]2 | %179
 [^G,,^G,]2 [A,,A,]3 [D,,D,][=G,,=G,][F,,F,] | [^E,,^E,]2 [F,,F,]3 [B,,,B,,][=E,,=E,][D,,D,] | %181
 C,,/C,/C,,/C,/ [D,,D,]2 z4 | z2 F,,/F,/F,,/F,/ G,,/G,/G,,/G,/ G,,/G,/G,,/G,/ | %183
 G,,/G,/G,,/G,/ [F,,F,]2 z4 | G,,/G,/G,,/G,/ F,,/F,/F,,/F,/ G,,/G,/G,,/G,/ ^G,,/^G,/G,,/G,/ | %185
 A,,/A,/^G,/A,/ A,,/A,/G,/A,/ A,,/A,/G,/A,/ A,,/A,/G,/A,/ | D,D,,D,D, D,D,D,D, | %187
 D,D,,D,D, D,D,D,D, | D,D,,D,D, D,D,D,D, | D,D,,D,D, D,D,D,D, | [D,,D,]2 z2 z2 [A,,,A,,]2 | %191
 [D,,D,]/F,/A,/D/ F/A,/D/F/ !wedge!A!wedge!A z [A,,A,] | %192
 [D,,D,]2 z/ F,,,/A,,,/D,,/ F,,/A,,,/D,,/F,,/ A,,/F,,/A,,/F,,/ | D,,2 [D,,D,]2 [D,,D,]2 z2 :| %194
V:7
 x8 | x8 | x8 | x8 | x8 | x8 | x8 | x4[K:treble] x4 | x4[K:bass] x4 | x8 | x8 | x8 | x8 | x8 | x8 | %15
 x8 | x8 | x8 | x8 | x8 | x8 | x8 | x8 | x8 | x8 | x8 | x8 | x8 | x5[K:treble] x3 |[K:bass] x8 | %30
 A,,A,, C,C, D,D, F,F, | x8 | x8 | x8 | A,4 E,2 x2 | x8 | x8 | x8 | A,4 E,2 x2 | x8 | x8 | x8 | %42
 x8 | x8 | x8 | x8 | x8 | x8 | x8 | x8 | x8 | x8 | x8 | x8 | x8 | x8 | x8 | x8 | x8 | x8 | x8 | %61
 x8 | x8 | x5[K:treble] x3 | x8 | x8 | x4[K:bass] x4 | x8 | x8 | x8 | x8 | x8 | x8 | x8 | x8 | x8 | %76
 x8 | x[K:treble] x6[K:bass] x | x8 | x8 ::[K:treble] x8 | x8 | x5[K:bass] x3 | x8 | x8 | x8 | x8 | %87
 x8 | x8 | x8 | x8 | x8 | x8 | x8 | x8 | x8 | x8 | x8 | x8 | x8 | x8 | x4 x2 A,2- | %102
 A, x x2 x2 A,2- | A, x x2 x4 | x8 | x8 | x8 | x8 | x8 | x8 | x8 | x8 | x8 | x8 | x8 | x8 | x8 | %117
 x8 | x8 | x8 | B,4 A,4 |[K:treble] x8 | x8 | x8 | x8 | x8 | x8 |[K:bass] x8 | x8 | x8 | x8 | x8 | %132
 x8 | x6[K:treble] x2 | x2[K:bass] x6 | x8 | x8 | x8 | x8 | x8 | x8 | x8 | x8 | x8 | x8 | x8 | x8 | %147
 x8 | x8 | x8 | x8 | x8 | x8 | x8 | x8 | x8 | x8 | x8 | x8 | x8 | x8 | x8 | x8 | x8 | x8 | x8 | %166
 x8 | x8 | x8 | x8 | x8 | x8 | x8 | x8 | x8 | x8 | x8 | x8 | x8 | x8 | x8 | x8 | x8 | x8 | x8 | %185
 x8 | x8 | x8 | x8 | x8 | x8 | x8 | x8 | x8 :| %194
V:8
 x8 | x8 | x8 | x8 | x8 | x8 | x8 | x8 | x8 | x8 | x8 | x8 | x8 | x8 | x8 | x8 | x8 | x8 | x8 | %19
 x8 | x8 | x8 | x8 | x8 | x8 | x8 | x8 | x8 | x8 | x8 | x8 | x8 | x8 | x8 | x8 | x8 | x8 | x8 | %38
 x8 | x8 | x8 | x8 | E8 | x8 | E8 | x8 | E4- E2 D2 | C2 x2 x4 | x8 | x8 | x8 | x8 | x8 | x8 | x8 | %55
 x8 | x8 | x8 | x8 | x8 | x8 | x8 | x8 | x8 | x8 | x8 | x8 | x8 | x8 | x8 | x8 | x8 | x8 | x8 | %74
 x8 | x8 | x8 | x8 | x8 | x8 :: x8 | x8 | x8 | x8 | x8 | x8 | x8 | E4 ^F2 E2 | E2 x2 x4 | x8 | x8 | %91
 x8 | x8 | x8 | x8 | x8 | x8 | x8 | x8 | x8 | x8 | x8 | x8 | x8 | x8 | x8 | x8 | x8 | x8 | x8 | %110
 x8 | x8 | x8 | x8 | x8 | x8 | x8 | x8 | x8 | x8 | x8 | x8 | x8 | x8 | x8 | x8 | x8 | x8 | x8 | %129
 x8 | x2[K:bass] x6 | x2[K:treble] x6 | x8 | x8 | x8 | x8 | x8 | x8 | x8 | x8 | x8 | x8 | x8 | x8 | %144
 x8 | x8 | x8 | x8 | x8 | x8 | x8 | x8 | x8 | x8 | x8 | x8 | x8 | x8 | x8 | x8 | x8 | x8 | x8 | %163
 x8 | x8 | x8 | x8 | x8 | x8 | x8 | x8 | x8 | x8 | x8 | x8 | x8 | x8 | x8 | x8 | x8 | x8 | x8 | %182
 z2 [Ad]2 [G_B]4 | x8 | x8 | x8 | x8 | x8 | x8 | x8 | x8 | x8 | x8 | x8 :| %194

